X:0
T:My Tocher's The Jewel
T:The Highway to Edinburgh
T:Thro' the Lang Muir
T:Here Awa There Awa Willie
T:The Collier's Rant
T:Lord Elcho
G:jig
M:6/8
L:1/8
Q:3/8=108
K:F#Min
% dorian/minor/phrygian pentatonic
F/E/|CFF  F2E|FAB cfe|c<cB A/B/cB|AEE E2E|
     CFF  F2E|FAB cfe|c<cf ecB   |AFF F2||
e   |e>fe ecA|Bce f2f|e>cB AcB   |AEE E2E|
     FAE  FAE|FAB cfe|c<cf ecB   |AFF F2|]
